themes/themes/flat/org/jdownloader/images/dialogOCR.svg

<?xml version="1.0" encoding="UTF-8" standalone="no"?>
<!-- Generator: Adobe Illustrator 15.0.0, SVG Export Plug-In . SVG Version: 6.00 Build 0)  -->

<svg
   xmlns:dc="http://purl.org/dc/elements/1.1/"
   xmlns:cc="http://creativecommons.org/ns#"
   xmlns:rdf="http://www.w3.org/1999/02/22-rdf-syntax-ns#"
   xmlns:svg="http://www.w3.org/2000/svg"
   xmlns="http://www.w3.org/2000/svg"
   xmlns:sodipodi="http://sodipodi.sourceforge.net/DTD/sodipodi-0.dtd"
   xmlns:inkscape="http://www.inkscape.org/namespaces/inkscape"
   contentScriptType="application/ecmascript"
   contentStyleType="text/css"
   enable-background="new 0 0 48 48"
   height="36"
   id="????????_1"
   preserveAspectRatio="xMidYMid meet"
   style="fill:#000000"
   version="1.1"
   viewBox="0 0 36 36"
   width="36"
   x="0px"
   xml:space="preserve"
   y="0px"
   zoomAndPan="magnify"
   inkscape:version="0.91 r13725"
   sodipodi:docname="dialogOCR.svg"><metadata
     id="metadata25"><rdf:RDF><cc:Work
         rdf:about=""><dc:format>image/svg+xml</dc:format><dc:type
           rdf:resource="http://purl.org/dc/dcmitype/StillImage" /><dc:title></dc:title></cc:Work></rdf:RDF></metadata><defs
     id="defs23" /><sodipodi:namedview
     pagecolor="#ffffff"
     bordercolor="#666666"
     borderopacity="1"
     objecttolerance="10"
     gridtolerance="10"
     guidetolerance="10"
     inkscape:pageopacity="0"
     inkscape:pageshadow="2"
     inkscape:window-width="852"
     inkscape:window-height="480"
     id="namedview21"
     showgrid="false"
     fit-margin-top="0"
     fit-margin-left="0"
     fit-margin-right="0"
     fit-margin-bottom="0"
     inkscape:zoom="4.9166667"
     inkscape:cx="18"
     inkscape:cy="18"
     inkscape:window-x="0"
     inkscape:window-y="0"
     inkscape:window-maximized="0"
     inkscape:current-layer="????????_1" /><g
     id="g3"
     transform="translate(-6,-6)"><polygon
       points="34,9 34,6 42,6 42,14 39,14 39,9 "
       id="polygon5"
       style="fill:#b0bec5" /><polygon
       points="14,6 14,9 9,9 9,14 6,14 6,6 "
       id="polygon7"
       style="fill:#b0bec5" /><polygon
       points="34,39 34,42 42,42 42,34 39,34 39,39 "
       id="polygon9"
       style="fill:#b0bec5" /><polygon
       points="14,42 14,39 9,39 9,34 6,34 6,42 "
       id="polygon11"
       style="fill:#b0bec5" /></g><g
     id="g13"
     transform="translate(-6,-6)"><path
       d="m 17,24.24 c 0,1.14 -0.206,2.146 -0.619,3.025 -0.414,0.879 -1.003,1.552 -1.764,2.023 C 13.856,29.764 12.988,30 12.016,30 11.041,30 10.179,29.771 9.425,29.314 8.672,28.857 8.084,28.204 7.664,27.353 7.242,26.503 7.02,25.527 7,24.423 L 7,23.767 C 7,22.624 7.205,21.613 7.617,20.738 8.027,19.864 8.616,19.189 9.383,18.715 10.15,18.238 11.022,18 12,18 c 0.968,0 1.832,0.236 2.59,0.706 0.759,0.471 1.349,1.14 1.771,2.009 0.421,0.869 0.634,1.865 0.639,2.988 l 0,0.537 z m -2.804,-0.488 c 0,-1.161 -0.188,-2.043 -0.567,-2.643 -0.38,-0.604 -0.925,-0.902 -1.629,-0.902 -1.381,0 -2.111,1.059 -2.19,3.176 L 9.802,24.24 c 0,1.144 0.185,2.025 0.558,2.64 0.371,0.614 0.923,0.922 1.656,0.922 0.696,0 1.232,-0.3 1.608,-0.906 0.377,-0.604 0.569,-1.473 0.572,-2.606 l 0,-0.538 z"
       id="path15"
       inkscape:connector-curvature="0"
       style="fill:#9c27b0" /><path
       d="m 28.975,25.888 c -0.037,0.812 -0.262,1.53 -0.671,2.153 -0.409,0.621 -0.982,1.104 -1.722,1.445 C 25.842,29.828 24.999,30 24.048,30 22.482,30 21.25,29.5 20.35,28.502 19.451,27.502 19,26.09 19,24.269 l 0,-0.577 c 0,-1.144 0.203,-2.144 0.609,-3.002 0.406,-0.858 0.991,-1.52 1.756,-1.988 C 22.13,18.233 23.013,18 24.017,18 c 1.444,0 2.607,0.373 3.485,1.117 0.881,0.746 1.378,1.774 1.498,3.082 l -2.863,0 c -0.022,-0.709 -0.205,-1.221 -0.55,-1.529 -0.344,-0.311 -0.867,-0.466 -1.57,-0.466 -0.716,0 -1.239,0.261 -1.571,0.786 -0.331,0.523 -0.507,1.359 -0.522,2.508 l 0,0.826 c 0,1.246 0.158,2.136 0.479,2.67 0.317,0.533 0.867,0.802 1.646,0.802 0.662,0 1.166,-0.152 1.516,-0.457 0.348,-0.305 0.535,-0.788 0.555,-1.451 l 2.855,0 z"
       id="path17"
       inkscape:connector-curvature="0"
       style="fill:#9c27b0" /><path
       d="m 35.336,25.755 -1.522,0 0,4.245 -2.814,0 0,-12 4.593,0 c 1.384,0 2.466,0.314 3.247,0.947 0.779,0.631 1.17,1.522 1.17,2.675 0,0.833 -0.164,1.526 -0.492,2.075 -0.33,0.55 -0.844,0.993 -1.544,1.334 l 2.437,4.846 0,0.123 -3.014,0 -2.061,-4.245 z m -1.523,-2.225 1.779,0 c 0.533,0 0.938,-0.145 1.207,-0.435 0.27,-0.289 0.403,-0.691 0.403,-1.209 0,-0.518 -0.135,-0.926 -0.409,-1.221 -0.271,-0.294 -0.672,-0.441 -1.201,-0.441 l -1.779,0 0,3.306 z"
       id="path19"
       inkscape:connector-curvature="0"
       style="fill:#9c27b0" /></g></svg>

<?xml version="1.0" encoding="utf-8" standalone="no"?><!-- Generator: Adobe Illustrator 15.0.0, SVG Export Plug-In . SVG Version: 6.00 Build 0)  --><svg xmlns="http://www.w3.org/2000/svg" xmlns:xlink="http://www.w3.org/1999/xlink" contentScriptType="application/ecmascript" contentStyleType="text/css" enable-background="new 0 0 48 48" height="48px" id="????????_1" preserveAspectRatio="xMidYMid meet" style="fill:#000000" version="1.1" viewBox="0 0 48 48" width="48px" x="0px" xml:space="preserve" y="0px" zoomAndPan="magnify">
<g>
	<polygon fill="#B0BEC5" points="42,14 39,14 39,9 34,9 34,6 42,6  "/>
	<polygon fill="#B0BEC5" points="9,14 6,14 6,6 14,6 14,9 9,9  "/>
	<polygon fill="#B0BEC5" points="42,34 39,34 39,39 34,39 34,42 42,42  "/>
	<polygon fill="#B0BEC5" points="9,34 6,34 6,42 14,42 14,39 9,39  "/>
</g>
<g>
	<path d="M17,24.24c0,1.14-0.206,2.146-0.619,3.025c-0.414,0.879-1.003,1.552-1.764,2.023   C13.856,29.764,12.988,30,12.016,30c-0.975,0-1.837-0.229-2.591-0.686c-0.753-0.457-1.341-1.11-1.761-1.961   c-0.422-0.85-0.644-1.826-0.664-2.93v-0.656c0-1.143,0.205-2.154,0.617-3.029c0.41-0.874,0.999-1.549,1.766-2.023   C10.15,18.238,11.022,18,12,18c0.968,0,1.832,0.236,2.59,0.706c0.759,0.471,1.349,1.14,1.771,2.009   c0.421,0.869,0.634,1.865,0.639,2.988V24.24z M14.196,23.752c0-1.161-0.188-2.043-0.567-2.643c-0.38-0.604-0.925-0.902-1.629-0.902   c-1.381,0-2.111,1.059-2.19,3.176L9.802,24.24c0,1.144,0.185,2.025,0.558,2.64c0.371,0.614,0.923,0.922,1.656,0.922   c0.696,0,1.232-0.3,1.608-0.906c0.377-0.604,0.569-1.473,0.572-2.606V23.752z" fill="#9C27B0"/>
	<path d="M28.975,25.888c-0.037,0.812-0.262,1.53-0.671,2.153c-0.409,0.621-0.982,1.104-1.722,1.445   C25.842,29.828,24.999,30,24.048,30c-1.566,0-2.798-0.5-3.698-1.498c-0.899-1-1.35-2.412-1.35-4.233v-0.577   c0-1.144,0.203-2.144,0.609-3.002s0.991-1.52,1.756-1.988C22.13,18.233,23.013,18,24.017,18c1.444,0,2.607,0.373,3.485,1.117   c0.881,0.746,1.378,1.774,1.498,3.082h-2.863c-0.022-0.709-0.205-1.221-0.55-1.529c-0.344-0.311-0.867-0.466-1.57-0.466   c-0.716,0-1.239,0.261-1.571,0.786c-0.331,0.523-0.507,1.359-0.522,2.508v0.826c0,1.246,0.158,2.136,0.479,2.67   c0.317,0.533,0.867,0.802,1.646,0.802c0.662,0,1.166-0.152,1.516-0.457c0.348-0.305,0.535-0.788,0.555-1.451H28.975z" fill="#9C27B0"/>
	<path d="M35.336,25.755h-1.522V30H31V18h4.593c1.384,0,2.466,0.314,3.247,0.947c0.779,0.631,1.17,1.522,1.17,2.675   c0,0.833-0.164,1.526-0.492,2.075c-0.33,0.55-0.844,0.993-1.544,1.334l2.437,4.846V30h-3.014L35.336,25.755z M33.813,23.53h1.779   c0.533,0,0.938-0.145,1.207-0.435c0.27-0.289,0.403-0.691,0.403-1.209s-0.135-0.926-0.409-1.221   c-0.271-0.294-0.672-0.441-1.201-0.441h-1.779V23.53z" fill="#9C27B0"/>
</g>
</svg>
